flaticon/fitness/weight-3.svg

<svg xmlns="http://www.w3.org/2000/svg" width="32" height="32" viewBox="0 0 24 24">
    <path d="M 22.601562 9.601562 L 1.398438 9.601562 C 0.640625 9.601562 0 10.238281 0 11 L 0 13 C 0 13.761719 0.640625 14.398438 1.398438 14.398438 L 22.601562 14.398438 C 23.359375 14.398438 24 13.761719 24 13 L 24 11 C 24 10.238281 23.359375 9.601562 22.601562 9.601562 Z M 23.199219 13 C 23.199219 13.320312 22.921875 13.601562 22.601562 13.601562 L 18.800781 13.601562 C 18.800781 13.359375 18.640625 13.199219 18.398438 13.199219 C 18.160156 13.199219 18 13.359375 18 13.601562 L 17.199219 13.601562 C 17.199219 13.359375 17.039062 13.199219 16.800781 13.199219 C 16.558594 13.199219 16.398438 13.359375 16.398438 13.601562 L 15.601562 13.601562 C 15.601562 13.359375 15.441406 13.199219 15.199219 13.199219 C 14.960938 13.199219 14.800781 13.359375 14.800781 13.601562 L 9.199219 13.601562 C 9.199219 13.359375 9.039062 13.199219 8.800781 13.199219 C 8.558594 13.199219 8.398438 13.359375 8.398438 13.601562 L 7.601562 13.601562 C 7.601562 13.359375 7.441406 13.199219 7.199219 13.199219 C 6.960938 13.199219 6.800781 13.359375 6.800781 13.601562 L 6 13.601562 C 6 13.359375 5.839844 13.199219 5.601562 13.199219 C 5.359375 13.199219 5.199219 13.359375 5.199219 13.601562 L 1.398438 13.601562 C 1.078125 13.601562 0.800781 13.320312 0.800781 13 L 0.800781 11 C 0.800781 10.679688 1.078125 10.398438 1.398438 10.398438 L 5.199219 10.398438 C 5.199219 10.640625 5.359375 10.800781 5.601562 10.800781 C 5.839844 10.800781 6 10.640625 6 10.398438 L 6.800781 10.398438 C 6.800781 10.640625 6.960938 10.800781 7.199219 10.800781 C 7.441406 10.800781 7.601562 10.640625 7.601562 10.398438 L 8.398438 10.398438 C 8.398438 10.640625 8.558594 10.800781 8.800781 10.800781 C 9.039062 10.800781 9.199219 10.640625 9.199219 10.398438 L 14.800781 10.398438 C 14.800781 10.640625 14.960938 10.800781 15.199219 10.800781 C 15.398438 10.800781 15.601562 10.640625 15.601562 10.398438 L 16.398438 10.398438 C 16.398438 10.640625 16.558594 10.800781 16.800781 10.800781 C 17 10.800781 17.199219 10.640625 17.199219 10.398438 L 18 10.398438 C 18 10.640625 18.160156 10.800781 18.398438 10.800781 C 18.601562 10.800781 18.800781 10.640625 18.800781 10.398438 L 22.601562 10.398438 C 22.917969 10.398438 23.199219 10.679688 23.199219 11 Z M 23.199219 13"/>
    <path d="M6.398438 11.601562C6.640625 11.601562 6.800781 11.441406 6.800781 11.199219 6.800781 10.960938 6.640625 10.800781 6.398438 10.800781 6.160156 10.800781 6 10.960938 6 11.199219 6 11.441406 6.160156 11.601562 6.398438 11.601562zM8 11.601562C8.238281 11.601562 8.398438 11.441406 8.398438 11.199219 8.398438 10.960938 8.238281 10.800781 8 10.800781 7.761719 10.800781 7.601562 10.960938 7.601562 11.199219 7.601562 11.441406 7.761719 11.601562 8 11.601562zM5.601562 11.601562C5.359375 11.601562 5.199219 11.761719 5.199219 12 5.199219 12.238281 5.359375 12.398438 5.601562 12.398438 5.839844 12.398438 6 12.238281 6 12 6 11.761719 5.839844 11.601562 5.601562 11.601562zM7.199219 11.601562C6.960938 11.601562 6.800781 11.761719 6.800781 12 6.800781 12.238281 6.960938 12.398438 7.199219 12.398438 7.441406 12.398438 7.601562 12.238281 7.601562 12 7.601562 11.761719 7.441406 11.601562 7.199219 11.601562zM8.800781 11.601562C8.558594 11.601562 8.398438 11.761719 8.398438 12 8.398438 12.238281 8.558594 12.398438 8.800781 12.398438 9.039062 12.398438 9.199219 12.238281 9.199219 12 9.199219 11.761719 9.039062 11.601562 8.800781 11.601562zM6.398438 12.398438C6.160156 12.398438 6 12.558594 6 12.800781 6 13.039062 6.160156 13.199219 6.398438 13.199219 6.640625 13.199219 6.800781 13.039062 6.800781 12.800781 6.800781 12.558594 6.640625 12.398438 6.398438 12.398438zM8 12.398438C7.761719 12.398438 7.601562 12.558594 7.601562 12.800781 7.601562 13.039062 7.761719 13.199219 8 13.199219 8.238281 13.199219 8.398438 13.039062 8.398438 12.800781 8.398438 12.558594 8.238281 12.398438 8 12.398438zM16 11.601562C16.199219 11.601562 16.398438 11.441406 16.398438 11.199219 16.398438 10.960938 16.238281 10.800781 16 10.800781 15.761719 10.800781 15.601562 10.960938 15.601562 11.199219 15.601562 11.441406 15.761719 11.601562 16 11.601562zM17.601562 11.601562C17.800781 11.601562 18 11.441406 18 11.199219 18 10.960938 17.839844 10.800781 17.601562 10.800781 17.359375 10.800781 17.199219 10.960938 17.199219 11.199219 17.199219 11.441406 17.359375 11.601562 17.601562 11.601562zM15.199219 11.601562C14.960938 11.601562 14.800781 11.761719 14.800781 12 14.800781 12.238281 14.960938 12.398438 15.199219 12.398438 15.398438 12.398438 15.601562 12.238281 15.601562 12 15.601562 11.761719 15.441406 11.601562 15.199219 11.601562zM16.800781 11.601562C16.558594 11.601562 16.398438 11.761719 16.398438 12 16.398438 12.238281 16.558594 12.398438 16.800781 12.398438 17 12.398438 17.199219 12.238281 17.199219 12 17.199219 11.761719 17.039062 11.601562 16.800781 11.601562zM18.398438 11.601562C18.160156 11.601562 18 11.761719 18 12 18 12.238281 18.160156 12.398438 18.398438 12.398438 18.601562 12.398438 18.800781 12.238281 18.800781 12 18.800781 11.761719 18.640625 11.601562 18.398438 11.601562zM16 12.398438C15.761719 12.398438 15.601562 12.558594 15.601562 12.800781 15.601562 13.039062 15.761719 13.199219 16 13.199219 16.199219 13.199219 16.398438 13.039062 16.398438 12.800781 16.398438 12.558594 16.238281 12.398438 16 12.398438zM17.601562 12.398438C17.359375 12.398438 17.199219 12.558594 17.199219 12.800781 17.199219 13.039062 17.359375 13.199219 17.601562 13.199219 17.800781 13.199219 18 13.039062 18 12.800781 18 12.558594 17.839844 12.398438 17.601562 12.398438zM17.601562 12.398438"/>
</svg>

<svg xmlns="http://www.w3.org/2000/svg" width="32" height="32" viewBox="0 0 24 24">
    <path d="M22.602 9.602H1.398C.641 9.602 0 10.238 0 11v2c0 .762.64 1.398 1.398 1.398h21.204c.757 0 1.398-.636 1.398-1.398v-2c0-.762-.64-1.398-1.398-1.398zM23.199 13c0 .32-.277.602-.597.602H18.8c0-.243-.16-.403-.403-.403-.238 0-.398.16-.398.403h-.8c0-.243-.16-.403-.4-.403-.241 0-.402.16-.402.403h-.796c0-.243-.16-.403-.403-.403-.238 0-.398.16-.398.403H9.199c0-.243-.16-.403-.398-.403-.242 0-.403.16-.403.403h-.796c0-.243-.16-.403-.403-.403-.238 0-.398.16-.398.403H6c0-.243-.16-.403-.398-.403-.243 0-.403.16-.403.403H1.4A.614.614 0 0 1 .8 13v-2c0-.32.277-.602.597-.602H5.2c0 .243.16.403.403.403.238 0 .398-.16.398-.403h.8c0 .243.16.403.4.403.241 0 .402-.16.402-.403h.796c0 .243.16.403.403.403.238 0 .398-.16.398-.403h5.602c0 .243.16.403.398.403.2 0 .403-.16.403-.403h.796c0 .243.16.403.403.403a.4.4 0 0 0 .398-.403H18c0 .243.16.403.398.403.204 0 .403-.16.403-.403h3.8c.317 0 .598.282.598.602zm0 0"/>
    <path d="M6.398 11.602c.243 0 .403-.16.403-.403 0-.238-.16-.398-.403-.398-.238 0-.398.16-.398.398 0 .242.16.403.398.403zm0 0M8 11.602c.238 0 .398-.16.398-.403 0-.238-.16-.398-.398-.398-.238 0-.398.16-.398.398 0 .242.16.403.398.403zm0 0M5.602 11.602c-.243 0-.403.16-.403.398 0 .238.16.398.403.398.238 0 .398-.16.398-.398 0-.238-.16-.398-.398-.398zm0 0M7.2 11.602c-.24 0-.4.16-.4.398 0 .238.16.398.4.398.241 0 .402-.16.402-.398 0-.238-.16-.398-.403-.398zm0 0M8.8 11.602c-.241 0-.402.16-.402.398 0 .238.16.398.403.398.238 0 .398-.16.398-.398 0-.238-.16-.398-.398-.398zm0 0M6.398 12.398c-.238 0-.398.16-.398.403 0 .238.16.398.398.398.243 0 .403-.16.403-.398 0-.242-.16-.403-.403-.403zm0 0M8 12.398c-.238 0-.398.16-.398.403 0 .238.16.398.398.398.238 0 .398-.16.398-.398 0-.242-.16-.403-.398-.403zm0 0M16 11.602a.4.4 0 0 0 .398-.403c0-.238-.16-.398-.398-.398-.238 0-.398.16-.398.398 0 .242.16.403.398.403zm0 0M17.602 11.602a.4.4 0 0 0 .398-.403c0-.238-.16-.398-.398-.398-.243 0-.403.16-.403.398 0 .242.16.403.403.403zm0 0M15.2 11.602c-.24 0-.4.16-.4.398 0 .238.16.398.4.398.198 0 .402-.16.402-.398 0-.238-.16-.398-.403-.398zm0 0M16.8 11.602c-.241 0-.402.16-.402.398 0 .238.16.398.403.398a.4.4 0 0 0 .398-.398c0-.238-.16-.398-.398-.398zm0 0M18.398 11.602c-.238 0-.398.16-.398.398 0 .238.16.398.398.398a.4.4 0 0 0 .403-.398c0-.238-.16-.398-.403-.398zm0 0M16 12.398c-.238 0-.398.16-.398.403 0 .238.16.398.398.398a.4.4 0 0 0 .398-.398c0-.242-.16-.403-.398-.403zm0 0M17.602 12.398c-.243 0-.403.16-.403.403 0 .238.16.398.403.398a.4.4 0 0 0 .398-.398c0-.242-.16-.403-.398-.403zm0 0"/>
</svg>
